packages/core/src/svgs/jewel.svg

<svg width="24" height="24" viewBox="0 0 24 24" fill="none" xmlns="http://www.w3.org/2000/svg">
<g clip-path="url(#clip0_31_12031)">
<path d="M0 0H24V24H0V0Z" fill="#F0F3FA"/>
<path d="M8.14282 8.57129H15.4285V15.4284H8.14282V8.57129Z" fill="url(#paint0_linear_31_12031)"/>
<path d="M8.9999 13.2859L6.42847 14.3573V9.42871L8.9999 10.9287V13.2859Z" fill="#B5F759"/>
<path d="M15.2144 10.7145L17.7858 9.64307V14.5716L15.2144 13.0716V10.7145Z" fill="#2AB059"/>
<path d="M15.2143 13.2856L17.79 14.3442L14.3057 17.8328L13.5471 14.9528L15.2143 13.2856Z" fill="#26A379"/>
<path d="M9.00003 10.7141L6.42432 9.65556L9.9086 6.16699L10.6672 9.04699L9.00003 10.7141Z" fill="#E5FF9E"/>
<path d="M10.5257 15.2145L9.40714 17.7688L6 14.2073L8.89714 13.513L10.5257 15.2145ZM13.4657 8.92305L14.58 6.37305L18 9.64305L15.0943 10.6288L13.4657 8.92305Z" fill="#60E840"/>
<path d="M10.7143 8.78578L9.64282 6.21436H14.5714L13.0714 8.78578H10.7143Z" fill="#B5F759"/>
<path d="M13.2856 15L14.357 17.5714H9.42847L10.9285 15H13.2856Z" fill="#2AB059"/>
<path fill-rule="evenodd" clip-rule="evenodd" d="M13.7142 8.57143L15.4285 10.2857L17.8114 9.29571L18.0171 9.76714L15.4285 10.9286V13.0714L18.0085 14.19L17.8028 14.6614L15.4285 13.7143L13.7142 15.4286L14.7856 18H14.1428L13.0714 15.4286H10.9285L9.85707 18H9.21421L10.2856 15.4286L8.57135 13.7143L6.31278 14.67L6.10707 14.1986L8.57135 13.0714V10.9286L6.10278 9.76286L6.3085 9.29143L8.57135 10.2857L10.2856 8.57143L9.34278 6.20571L9.80993 6L10.9285 8.57143H13.0714L14.2714 6.02143L14.7428 6.22714L13.7142 8.57143ZM9.21421 10.5L11.1428 15H10.7142L9.21421 13.5V10.5ZM12.8571 15L10.2856 9.42857L10.7142 9.21429L13.2856 14.7857L12.8571 15ZM13.2856 9.21429L14.7856 10.5V13.5L13.9414 14.3571L11.5714 9.21429H13.2856Z" fill="#F0F3FA"/>
<path fill-rule="evenodd" clip-rule="evenodd" d="M15.0001 4.71436L19.2858 9.00007V15.0001L15.0001 19.2858H9.00007L4.71436 15.0001V9.00007L9.00007 4.71436H15.0001ZM14.1429 6.42864L15.0001 7.28578L14.7858 9.29578L16.7144 9.00007L17.5715 9.85721V14.1429L16.7144 15.0001L14.7858 14.7858L15.0001 16.7144L14.1429 17.5715H9.85721L9.00007 16.7144L9.21436 14.7858L6.85721 15.0001L6.42864 14.5286V9.85721L7.28578 9.00007L9.21436 9.21436L9.00007 7.28578L9.85721 6.42864H14.1429Z" fill="url(#paint1_linear_31_12031)"/>
<path fill-rule="evenodd" clip-rule="evenodd" d="M14.7857 5.14307L18.8571 9.2145V14.7859L14.7857 18.8574H9.21425L5.14282 14.7859V9.2145L9.21425 5.14307H14.7857ZM14.5714 6.00021L15.4285 6.85735L15.2143 8.78592L17.1428 8.57164L18 9.42878V14.5716L17.1428 15.4288L15.2143 15.2145L15.4285 17.1431L14.5714 18.0002H9.42854L8.57139 17.1431L8.78568 15.2145L6.85711 15.4288L5.99997 14.5716V9.42878L6.85711 8.57164L8.78568 8.78592L8.57139 6.85735L9.42854 6.00021H14.5714Z" fill="url(#paint2_linear_31_12031)"/>
<path fill-rule="evenodd" clip-rule="evenodd" d="M14.6443 5.82878L15.6085 6.79307L15.4071 8.59307L17.2071 8.39164L18.1714 9.35592V14.6445L17.2071 15.6088L15.4071 15.4074L15.6085 17.2074L14.6443 18.1716H9.35568L8.39139 17.2074L8.59282 15.4074L6.79282 15.6088L5.82854 14.6445V9.35592L6.79282 8.39164L8.59282 8.59307L8.39139 6.79307L9.35568 5.82878H14.6443ZM8.78568 8.78592L6.85711 8.57164L5.99997 9.42878V14.5716L6.85711 15.4288L8.78568 15.2145L8.57139 17.1431L9.42854 18.0002H14.5714L15.4285 17.1431L15.2143 15.2145L17.1428 15.4288L18 14.5716V9.42878L17.1428 8.57164L15.2143 8.78592L15.4285 6.85735L14.5714 6.00021H9.42854L8.57139 6.85735L8.78568 8.78592ZM14.7128 5.31449H9.28711L5.31425 9.28735V14.7131L9.28711 18.6859H14.7128L18.6857 14.7131V9.28735L14.7128 5.31449ZM18.8571 9.2145L14.7857 5.14307H9.21425L5.14282 9.2145V14.7859L9.21425 18.8574H14.7857L18.8571 14.7859V9.2145Z" fill="#FFD464"/>
</g>
<defs>
<linearGradient id="paint0_linear_31_12031" x1="10.0714" y1="9.21415" x2="14.3571" y2="14.9999" gradientUnits="userSpaceOnUse">
<stop stop-color="#DCFA9C"/>
<stop offset="0.45" stop-color="#81F045"/>
<stop offset="0.95" stop-color="#3FB66B"/>
</linearGradient>
<linearGradient id="paint1_linear_31_12031" x1="6.85721" y1="6.42864" x2="17.3572" y2="17.3572" gradientUnits="userSpaceOnUse">
<stop stop-color="#F3DF6D"/>
<stop offset="1" stop-color="#C4732D"/>
</linearGradient>
<linearGradient id="paint2_linear_31_12031" x1="6.85711" y1="7.28592" x2="16.7143" y2="17.1431" gradientUnits="userSpaceOnUse">
<stop stop-color="#FCFA95"/>
<stop offset="1" stop-color="#F09A4F"/>
</linearGradient>
<clipPath id="clip0_31_12031">
<rect width="24" height="24" fill="white"/>
</clipPath>
</defs>
</svg>

<svg xmlns="http://www.w3.org/2000/svg" width="24" height="24" fill="none" viewBox="0 0 24 24"><g clip-path="url(#a)"><path fill="#F0F3FA" d="M0 0h24v24H0z"/><path fill="url(#b)" d="M8.143 8.571h7.285v6.857H8.143z"/><path fill="#B5F759" d="m9 13.286-2.572 1.071V9.43L9 10.929z"/><path fill="#2AB059" d="m15.214 10.715 2.572-1.072v4.929l-2.572-1.5z"/><path fill="#26A379" d="m15.214 13.286 2.576 1.058-3.484 3.489-.759-2.88z"/><path fill="#E5FF9E" d="M9 10.714 6.424 9.656 9.91 6.167l.758 2.88z"/><path fill="#60E840" d="m10.526 15.215-1.119 2.554L6 14.207l2.897-.694zm2.94-6.292 1.114-2.55L18 9.643l-2.906.986z"/><path fill="#B5F759" d="M10.714 8.786 9.643 6.214h4.928l-1.5 2.572z"/><path fill="#2AB059" d="m13.286 15 1.071 2.571H9.428l1.5-2.571z"/><path fill="#F0F3FA" fill-rule="evenodd" d="m13.714 8.571 1.714 1.715 2.383-.99.206.471-2.588 1.162v2.142l2.58 1.119-.206.471-2.375-.947-1.714 1.715L14.786 18h-.643l-1.072-2.571H10.93L9.857 18h-.643l1.072-2.571-1.715-1.715-2.258.956-.206-.471 2.464-1.128V10.93L6.103 9.763l.206-.472 2.262.995 1.715-1.715-.943-2.365L9.81 6l1.118 2.571h2.143l1.2-2.55.472.206zm-4.5 1.929 1.929 4.5h-.429l-1.5-1.5zm3.643 4.5-2.571-5.571.428-.215 2.572 5.572zm.429-5.786 1.5 1.286v3l-.845.857-2.37-5.143z" clip-rule="evenodd"/><path fill="url(#c)" fill-rule="evenodd" d="M15 4.714 19.286 9v6L15 19.286H9L4.714 15V9L9 4.714zm-.857 1.715.857.857-.214 2.01L16.714 9l.858.857v4.286l-.858.857-1.928-.214.214 1.928-.857.858H9.857L9 16.714l.214-1.928L6.857 15l-.428-.471V9.857L7.286 9l1.928.214L9 7.286l.857-.857z" clip-rule="evenodd"/><path fill="url(#d)" fill-rule="evenodd" d="m14.786 5.143 4.071 4.071v5.572l-4.071 4.071H9.214l-4.071-4.071V9.215l4.071-4.072zM14.57 6l.857.857-.214 1.929 1.929-.214.857.857v5.143l-.857.857-1.929-.215.214 1.93-.857.856H9.43l-.858-.857.215-1.929-1.929.215L6 14.572V9.429l.857-.857 1.929.214-.215-1.929L9.43 6z" clip-rule="evenodd"/><path fill="#FFD464" fill-rule="evenodd" d="m14.644 5.829.964.964-.2 1.8 1.8-.201.963.964v5.289l-.964.964-1.8-.202.201 1.8-.964.965H9.356l-.965-.965.202-1.8-1.8.202-.964-.964v-5.29l.964-.963 1.8.201-.202-1.8.965-.964zM8.786 8.786l-1.929-.214L6 9.429v5.143l.857.857 1.929-.215-.215 1.93.858.856h5.142l.857-.857-.214-1.929 1.929.215.857-.857V9.429l-.857-.857-1.929.214.214-1.929L14.572 6H9.43l-.858.857zm5.927-3.472H9.287L5.314 9.287v5.426l3.973 3.973h5.426l3.973-3.973V9.287zm4.144 3.9-4.071-4.07H9.214l-4.071 4.07v5.572l4.071 4.071h5.572l4.071-4.071z" clip-rule="evenodd"/></g><defs><linearGradient id="b" x1="10.071" x2="14.357" y1="9.214" y2="15" gradientUnits="userSpaceOnUse"><stop stop-color="#DCFA9C"/><stop offset=".45" stop-color="#81F045"/><stop offset=".95" stop-color="#3FB66B"/></linearGradient><linearGradient id="c" x1="6.857" x2="17.357" y1="6.429" y2="17.357" gradientUnits="userSpaceOnUse"><stop stop-color="#F3DF6D"/><stop offset="1" stop-color="#C4732D"/></linearGradient><linearGradient id="d" x1="6.857" x2="16.714" y1="7.286" y2="17.143" gradientUnits="userSpaceOnUse"><stop stop-color="#FCFA95"/><stop offset="1" stop-color="#F09A4F"/></linearGradient><clipPath id="a"><path fill="#fff" d="M0 0h24v24H0z"/></clipPath></defs></svg>
